src/xmb/retrosystem/menu_log.svg

<svg xmlns="http://www.w3.org/2000/svg" xml:space="preserve" width="64" height="64"><g style="fill:#e6e6e6;stroke-width:3.12694384;stroke:#1a1a1a;stroke-miterlimit:4;stroke-dasharray:none"><path d="M0 0h-50.286c-3.473 0-6.285-2.784-6.285-6.222v-99.556c0-3.438 2.812-6.222 6.285-6.222h75.429c3.473 0 6.286 2.784 6.286 6.222v74.667z" style="fill:#e6e6e6;fill-opacity:1;fill-rule:nonzero;stroke:#1a1a1a;stroke-width:3.12694384;stroke-miterlimit:4;stroke-dasharray:none" transform="matrix(.31818 0 0 -.32143 36 14)"/></g><g style="stroke-width:3.19999957"><path d="M0 0h-12.813a6.4 6.4 0 0 0-6.4 6.4V32l32-32z" style="fill:#fff;fill-opacity:1;fill-rule:nonzero;stroke:none;stroke-width:3.19999957" transform="matrix(.3125 0 0 -.3125 40.004 25)"/></g><g style="stroke-width:2.85158348"><path d="M-48.431 5.119h31.444v6.206h-31.444z" style="opacity:.98999999;vector-effect:none;fill:#b3b3b3;fill-opacity:1;stroke:none;stroke-width:2.85158372;stroke-linecap:butt;stroke-linejoin:miter;stroke-miterlimit:4;stroke-dasharray:none;stroke-dashoffset:0;stroke-opacity:1;paint-order:markers stroke fill" transform="matrix(.38162 0 0 .32225 38.483 18.35)"/></g><g style="stroke-width:2.85158348"><path d="M-48.431 5.119h31.444v6.206h-31.444z" style="opacity:.98999999;vector-effect:none;fill:#b3b3b3;fill-opacity:1;stroke:none;stroke-width:2.85158372;stroke-linecap:butt;stroke-linejoin:miter;stroke-miterlimit:4;stroke-dasharray:none;stroke-dashoffset:0;stroke-opacity:1;paint-order:markers stroke fill" transform="matrix(.38162 0 0 .32225 38.483 22.35)"/></g><g style="stroke-width:2.01637387"><path d="M-48.431 5.119h31.444v6.206h-31.444z" style="opacity:.98999999;vector-effect:none;fill:#b3b3b3;fill-opacity:1;stroke:none;stroke-width:2.01637411;stroke-linecap:butt;stroke-linejoin:miter;stroke-miterlimit:4;stroke-dasharray:none;stroke-dashoffset:0;stroke-opacity:1;paint-order:markers stroke fill" transform="matrix(.76325 0 0 .32225 56.965 26.35)"/></g><g style="stroke-width:2.01637387"><path d="M-48.431 5.119h31.444v6.206h-31.444z" style="opacity:.98999999;vector-effect:none;fill:#b3b3b3;fill-opacity:1;stroke:none;stroke-width:2.01637411;stroke-linecap:butt;stroke-linejoin:miter;stroke-miterlimit:4;stroke-dasharray:none;stroke-dashoffset:0;stroke-opacity:1;paint-order:markers stroke fill" transform="matrix(.76325 0 0 .32225 56.965 30.35)"/></g><g style="stroke-width:2.01637387"><path d="M-48.431 5.119h31.444v6.206h-31.444z" style="opacity:.98999999;vector-effect:none;fill:#b3b3b3;fill-opacity:1;stroke:none;stroke-width:2.01637411;stroke-linecap:butt;stroke-linejoin:miter;stroke-miterlimit:4;stroke-dasharray:none;stroke-dashoffset:0;stroke-opacity:1;paint-order:markers stroke fill" transform="matrix(.76325 0 0 .32225 56.965 34.35)"/></g><g style="stroke-width:3.49246192"><path d="M-48.431 5.119h31.444v6.206h-31.444z" style="opacity:.98999999;vector-effect:none;fill:#b3b3b3;fill-opacity:1;stroke:none;stroke-width:3.4924624;stroke-linecap:butt;stroke-linejoin:miter;stroke-miterlimit:4;stroke-dasharray:none;stroke-dashoffset:0;stroke-opacity:1;paint-order:markers stroke fill" transform="matrix(.25442 0 0 .32225 32.322 38.35)"/></g><g style="stroke-width:6.00000048"><path d="M-93 117V97l44-44 20 20-44 44Z" style="fill:#eac500;fill-opacity:1;fill-rule:nonzero;stroke:none;stroke-width:6.00000048" transform="translate(43.5 22.5)scale(.16667)"/><path d="M-85 117h12l44-44h-12z" style="fill:#d4a600;fill-opacity:1;fill-rule:nonzero;stroke:none;stroke-width:6.00000048" transform="translate(43.5 22.5)scale(.16667)"/><path d="m-93 109 44-44V53l-44 44z" style="fill:#ff0;fill-opacity:1;fill-rule:nonzero;stroke:none;stroke-width:6.00000048" transform="translate(43.5 22.5)scale(.16667)"/><g style="stroke-width:6.00000048"><path d="m0 0-16-16L4-36l16 16C20-8 12 0 0 0" style="fill:#b80000;fill-opacity:1;fill-rule:nonzero;stroke:none;stroke-width:6.00000048" transform="matrix(.16667 0 0 -.16667 36.667 30)"/></g><g style="stroke-width:6.00000048"><path d="M0 0c12 0 20-8 20-20H0Z" style="fill:#fc9;fill-opacity:1;fill-rule:nonzero;stroke:none;stroke-width:6.00000048" transform="matrix(.16667 0 0 -.16667 28 38.667)"/></g><g style="fill:#4d4d4d;fill-opacity:1;stroke-width:6.00000048"><path d="M0 0c4 0 8-4 8-8H0Z" style="fill:#4d4d4d;fill-opacity:1;fill-rule:nonzero;stroke:none;stroke-width:6.00000048" transform="matrix(.16667 0 0 -.16667 28 40.667)"/></g><g style="stroke-width:6.00000048"><path d="m0 0-4-4c12 0 20-8 20-20l4 4C20-8 12 0 0 0" style="fill:gray;fill-opacity:1;fill-rule:nonzero;stroke:none;stroke-width:6.00000048" transform="matrix(.16667 0 0 -.16667 35.333 31.333)"/></g><g style="stroke-width:6.00000048"><path d="m0 0-4-4c12 0 20-8 20-20l4 4C20-8 12 0 0 0" style="fill:gray;fill-opacity:1;fill-rule:nonzero;stroke:none;stroke-width:6.00000048" transform="matrix(.16667 0 0 -.16667 34 32.667)"/></g><g style="stroke-width:6.00000048"><path d="m0 0-4-4c12 0 20-8 20-20l4 4C20-8 12 0 0 0" style="fill:#999;fill-opacity:1;fill-rule:nonzero;stroke:none;stroke-width:6.00000048" transform="matrix(.16667 0 0 -.16667 33.333 33.333)"/></g><g style="stroke-width:6.00000048"><path d="m0 0-4-4c12 0 20-8 20-20l4 4C20-8 12 0 0 0" style="fill:#999;fill-opacity:1;fill-rule:nonzero;stroke:none;stroke-width:6.00000048" transform="matrix(.16667 0 0 -.16667 34.667 32)"/></g></g></svg>

<?xml version="1.0" encoding="UTF-8" standalone="no"?>
<svg
   xmlns:dc="http://purl.org/dc/elements/1.1/"
   xmlns:cc="http://creativecommons.org/ns#"
   xmlns:rdf="http://www.w3.org/1999/02/22-rdf-syntax-ns#"
   xmlns:svg="http://www.w3.org/2000/svg"
   xmlns="http://www.w3.org/2000/svg"
   xmlns:sodipodi="http://sodipodi.sourceforge.net/DTD/sodipodi-0.dtd"
   xmlns:inkscape="http://www.inkscape.org/namespaces/inkscape"
   version="1.1"
   id="Calque_1"
   x="0px"
   y="0px"
   width="64px"
   height="64px"
   viewBox="0 0 64 64"
   enable-background="new 0 0 64 64"
   xml:space="preserve"
   sodipodi:docname="menu_log.svg"
   inkscape:version="0.92.3 (2405546, 2018-03-11)"
   inkscape:export-filename="/media/alfrix/DATOS/xmb/menu_playlist.png"
   inkscape:export-xdpi="384"
   inkscape:export-ydpi="384"><metadata
     id="metadata8"><rdf:RDF><cc:Work
         rdf:about=""><dc:format>image/svg+xml</dc:format><dc:type
           rdf:resource="http://purl.org/dc/dcmitype/StillImage" /></cc:Work></rdf:RDF></metadata><defs
     id="defs6" /><sodipodi:namedview
     pagecolor="#ffffff"
     bordercolor="#666666"
     borderopacity="1"
     objecttolerance="10"
     gridtolerance="10"
     guidetolerance="10"
     inkscape:pageopacity="0"
     inkscape:pageshadow="2"
     inkscape:window-width="1920"
     inkscape:window-height="1001"
     id="namedview4"
     showgrid="true"
     inkscape:zoom="10.429825"
     inkscape:cx="3.4299614"
     inkscape:cy="27.085581"
     inkscape:window-x="-9"
     inkscape:window-y="-9"
     inkscape:window-maximized="1"
     inkscape:current-layer="Calque_1"><inkscape:grid
       type="xygrid"
       id="grid3699" /></sodipodi:namedview><g
     id="g36"
     transform="matrix(0.31818182,0,0,-0.32142857,35.999863,14)"
     style="fill:#e6e6e6;stroke-width:3.12694384;stroke:#1a1a1a;stroke-miterlimit:4;stroke-dasharray:none"><path
       inkscape:connector-curvature="0"
       d="m 0,0 h -50.286 c -3.473,0 -6.285,-2.784 -6.285,-6.222 v -99.556 c 0,-3.438 2.812,-6.222 6.285,-6.222 h 75.429 c 3.473,0 6.286,2.784 6.286,6.222 v 74.667 z"
       style="fill:#e6e6e6;fill-opacity:1;fill-rule:nonzero;stroke:#1a1a1a;stroke-width:3.12694384;stroke-miterlimit:4;stroke-dasharray:none"
       id="path38" /></g><g
     id="g44"
     transform="matrix(0.3125,0,0,-0.3125,40.004062,25)"
     style="stroke-width:3.19999957"><path
       inkscape:connector-curvature="0"
       d="m 0,0 h -12.813 c -3.536,0 -6.4,2.864 -6.4,6.4 V 19.2 32 l 32,-32 z"
       style="fill:#ffffff;fill-opacity:1;fill-rule:nonzero;stroke:none;stroke-width:3.19999957"
       id="path46" /></g><g
     id="g40"
     transform="matrix(0.38162495,0,0,-0.32224855,38.482543,18.350401)"
     style="stroke-width:2.85158348"><rect
       style="opacity:0.98999999;vector-effect:none;fill:#b3b3b3;fill-opacity:1;stroke:none;stroke-width:2.85158372;stroke-linecap:butt;stroke-linejoin:miter;stroke-miterlimit:4;stroke-dasharray:none;stroke-dashoffset:0;stroke-opacity:1;paint-order:markers stroke fill"
       id="rect883"
       width="31.444485"
       height="6.2063894"
       x="-48.431171"
       y="5.1190271"
       transform="scale(1,-1)" /></g><g
     style="stroke-width:2.85158348"
     transform="matrix(0.38162495,0,0,-0.32224855,38.482543,22.350401)"
     id="g889"><rect
       transform="scale(1,-1)"
       y="5.1190271"
       x="-48.431171"
       height="6.2063894"
       width="31.444485"
       id="rect887"
       style="opacity:0.98999999;vector-effect:none;fill:#b3b3b3;fill-opacity:1;stroke:none;stroke-width:2.85158372;stroke-linecap:butt;stroke-linejoin:miter;stroke-miterlimit:4;stroke-dasharray:none;stroke-dashoffset:0;stroke-opacity:1;paint-order:markers stroke fill" /></g><g
     id="g893"
     transform="matrix(0.76324993,0,0,-0.32224855,56.965087,26.350401)"
     style="stroke-width:2.01637387"><rect
       style="opacity:0.98999999;vector-effect:none;fill:#b3b3b3;fill-opacity:1;stroke:none;stroke-width:2.01637411;stroke-linecap:butt;stroke-linejoin:miter;stroke-miterlimit:4;stroke-dasharray:none;stroke-dashoffset:0;stroke-opacity:1;paint-order:markers stroke fill"
       id="rect891"
       width="31.444485"
       height="6.2063894"
       x="-48.431171"
       y="5.1190271"
       transform="scale(1,-1)" /></g><g
     style="stroke-width:2.01637387"
     transform="matrix(0.76324993,0,0,-0.32224855,56.965087,30.350401)"
     id="g897"><rect
       transform="scale(1,-1)"
       y="5.1190271"
       x="-48.431171"
       height="6.2063894"
       width="31.444485"
       id="rect895"
       style="opacity:0.98999999;vector-effect:none;fill:#b3b3b3;fill-opacity:1;stroke:none;stroke-width:2.01637411;stroke-linecap:butt;stroke-linejoin:miter;stroke-miterlimit:4;stroke-dasharray:none;stroke-dashoffset:0;stroke-opacity:1;paint-order:markers stroke fill" /></g><g
     id="g901"
     transform="matrix(0.76324993,0,0,-0.32224855,56.965087,34.350401)"
     style="stroke-width:2.01637387"><rect
       style="opacity:0.98999999;vector-effect:none;fill:#b3b3b3;fill-opacity:1;stroke:none;stroke-width:2.01637411;stroke-linecap:butt;stroke-linejoin:miter;stroke-miterlimit:4;stroke-dasharray:none;stroke-dashoffset:0;stroke-opacity:1;paint-order:markers stroke fill"
       id="rect899"
       width="31.444485"
       height="6.2063894"
       x="-48.431171"
       y="5.1190271"
       transform="scale(1,-1)" /></g><g
     style="stroke-width:3.49246192"
     transform="matrix(0.25441666,0,0,-0.32224855,32.321696,38.350401)"
     id="g905"><rect
       transform="scale(1,-1)"
       y="5.1190271"
       x="-48.431171"
       height="6.2063894"
       width="31.444485"
       id="rect903"
       style="opacity:0.98999999;vector-effect:none;fill:#b3b3b3;fill-opacity:1;stroke:none;stroke-width:3.4924624;stroke-linecap:butt;stroke-linejoin:miter;stroke-miterlimit:4;stroke-dasharray:none;stroke-dashoffset:0;stroke-opacity:1;paint-order:markers stroke fill" /></g><g
     id="g875"
     transform="matrix(0.16666665,0,0,0.16666665,43.5,22.500002)"
     style="stroke-width:6.00000048"><path
       inkscape:connector-curvature="0"
       d="M -93.000006,117 V 96.999997 L -49.000004,53.000003 -29.00001,72.999997 -73.000004,117 Z"
       style="fill:#eac500;fill-opacity:1;fill-rule:nonzero;stroke:none;stroke-width:6.00000048"
       id="path38-2" /><path
       inkscape:connector-curvature="0"
       d="m -85.000004,117 h 12 L -29.00001,72.999997 h -11.999992 z"
       style="fill:#d4a600;fill-opacity:1;fill-rule:nonzero;stroke:none;stroke-width:6.00000048"
       id="path42-6" /><path
       inkscape:connector-curvature="0"
       d="M -93.000006,109 -49.000004,64.999995 V 53.000003 l -44.000002,43.999994 z"
       style="fill:#ffff00;fill-opacity:1;fill-rule:nonzero;stroke:none;stroke-width:6.00000048"
       id="path46-7" /><g
       transform="matrix(0.99999996,0,0,-0.99999996,-41,45)"
       id="g56"
       style="stroke-width:6.00000048"><path
         id="path58"
         style="fill:#b80000;fill-opacity:1;fill-rule:nonzero;stroke:none;stroke-width:6.00000048"
         d="M 0,0 -16,-16 4,-36 20,-20 C 20,-8 12,0 0,0"
         inkscape:connector-curvature="0" /></g><g
       transform="matrix(0.99999996,0,0,-0.99999996,-93.000007,96.999999)"
       id="g60"
       style="stroke-width:6.00000048"><path
         id="path62"
         style="fill:#ffcc99;fill-opacity:1;fill-rule:nonzero;stroke:none;stroke-width:6.00000048"
         d="M 0,0 C 12,0 20,-8 20,-20 H 0 Z"
         inkscape:connector-curvature="0" /></g><g
       style="fill:#4d4d4d;fill-opacity:1;stroke-width:6.00000048"
       transform="matrix(0.99999996,0,0,-0.99999996,-93.000007,109)"
       id="g64"><path
         id="path66"
         style="fill:#4d4d4d;fill-opacity:1;fill-rule:nonzero;stroke:none;stroke-width:6.00000048"
         d="M 0,0 C 4,0 8,-4 8,-8 H 0 Z"
         inkscape:connector-curvature="0" /></g><g
       transform="matrix(0.99999996,0,0,-0.99999996,-49.00001,52.999999)"
       id="g68"
       style="stroke-width:6.00000048"><path
         id="path70"
         style="fill:#808080;fill-opacity:1;fill-rule:nonzero;stroke:none;stroke-width:6.00000048"
         d="m 0,0 -4,-4 c 12,0 20,-8 20,-20 l 4,4 C 20,-8 12,0 0,0"
         inkscape:connector-curvature="0" /></g><g
       transform="matrix(0.99999996,0,0,-0.99999996,-57.00001,60.999999)"
       id="g72"
       style="stroke-width:6.00000048"><path
         id="path74"
         style="fill:#808080;fill-opacity:1;fill-rule:nonzero;stroke:none;stroke-width:6.00000048"
         d="m 0,0 -4,-4 c 12,0 20,-8 20,-20 l 4,4 C 20,-8 12,0 0,0"
         inkscape:connector-curvature="0" /></g><g
       transform="matrix(0.99999996,0,0,-0.99999996,-61,64.999999)"
       id="g76"
       style="stroke-width:6.00000048"><path
         id="path78"
         style="fill:#999999;fill-opacity:1;fill-rule:nonzero;stroke:none;stroke-width:6.00000048"
         d="m 0,0 -4,-4 c 12,0 20,-8 20,-20 l 4,4 C 20,-8 12,0 0,0"
         inkscape:connector-curvature="0" /></g><g
       transform="matrix(0.99999996,0,0,-0.99999996,-53,56.999999)"
       id="g80"
       style="stroke-width:6.00000048"><path
         id="path82"
         style="fill:#999999;fill-opacity:1;fill-rule:nonzero;stroke:none;stroke-width:6.00000048"
         d="m 0,0 -4,-4 c 12,0 20,-8 20,-20 l 4,4 C 20,-8 12,0 0,0"
         inkscape:connector-curvature="0" /></g></g></svg>
